X:1
T:Title
%%score { 1 | 2 }
L:1/8
Q:1/4=90
M:6/8
K:D
V:1 treble nm="Grand Piano"
V:2 bass 
V:1
 F>FF EDF | [FA][FA][Fd] [FA]3 | c>BA [EG][DF][CE] | [A,DF]6 | [CEG]>[CEG][CEG] [CEG][DF][A,CE] | %5
w: R.~C.~Ward * * * * *|||||
 [A,DF][DFA][DGB] [DFA]3 | [Ec]>[DB][CA] [A,EG][A,DF][K:bass][G,CE] | [F,D]6 | %8
w: |||
 [Fd]>[Fd][Fd] [Fd] .[FA]2 | [GB][FA][DF] [FA]3 | [Ac]>[Ad][Ae] [Fd][Ec][DB] | [CA]6 | F>FF EDE | %13
w: |||||
 F[FA][GB] [FA]3 | c>BA [EG][DF][CE] | D6 |] %16
w: |||
V:2
 [D,A,D]>[D,A,D][D,A,D] [D,G,D][D,F,][D,A,D] | [D,D][D,D][D,A,] [D,D]3 | %2
 [A,E]>[A,D][A,C] [A,,A,][A,,A,][A,,A,] | D,6 | A,,>A,,A,, A,,A,,A,, | D,D,D, D,3 | %6
 A,>A,A, A,,A,,A,, | D,6 | [D,A,]>[D,A,][D,A,] [D,A,] .[D,D]2 | [D,D][D,D][D,A,] [D,D]3 | %10
 [E,A,]>[D,A,][C,A,] [D,A,][E,A,][E,^G,] | [A,,A,]6 | [D,A,D]>[D,A,D][D,A,D] [D,G,D][D,F,][D,G,D] | %13
 [D,A,D][D,D][D,D] [D,D]3 | [A,E]>[A,D][A,C] [A,,A,][A,,A,][A,,G,] | [D,F,]6 |] %16

